svgs/solid/scroll.svg

<svg xmlns="http://www.w3.org/2000/svg" viewBox="0 0 576 512"><!-- Font Awesome Pro 6.0.0-alpha2 by @fontawesome - https://fontawesome.com License - https://fontawesome.com/license (Commercial License) --><path d="M48 32C21.5 32 0 53.5 0 80V144C0 152.875 7.125 160 16 160H96V80C96 53.5 74.5 32 48 32ZM256 380.625V320H480V128C480 75 437 32 384 32H111.625C121.75 45.375 128 61.875 128 80V384C128 422.875 162.625 453.625 202.75 447.125C234.25 442 256 412.5 256 380.625ZM288 352V384C288 436.875 245 480 192 480H464C525.875 480 576 429.875 576 368C576 359.125 568.875 352 560 352H288Z"/></svg>

<svg xmlns="http://www.w3.org/2000/svg" viewBox="0 0 576 512"><!--! Font Awesome Pro 6.0.0-alpha3 by @fontawesome - https://fontawesome.com License - https://fontawesome.com/license (Commercial License) --><path d="M48 32C21.5 32 0 53.5 0 80v64C0 152.9 7.125 160 16 160H96V80C96 53.5 74.5 32 48 32zM256 380.6V320h224V128c0-53-43-96-96-96H111.6C121.8 45.38 128 61.88 128 80V384c0 38.88 34.62 69.63 74.75 63.13C234.3 442 256 412.5 256 380.6zM288 352v32c0 52.88-43 96-96 96h272c61.88 0 112-50.13 112-112c0-8.875-7.125-16-16-16H288z"/></svg>
